X: 736
T: Captain Byng   #2
R: reel
%S: s:2 b:16(8+8)
B: Francis O'Neill: "The Dance Music of Ireland" (1907) #736
Z: Frank Nordberg - http://www.musicaviva.com
F: http://www.musicaviva.com/abc/tunes/ireland/oneill-1001/0736/oneill-1001-0736-1.abc
M: C
L: 1/8
K: G
"^A"[|] d | gfgd BGG2 | eaag fd [1 ef | gfgd BGGB | cAdB G2G  :|[2 cA |Bdef gage | dBAB G2G |]
"^B"|: c |: BGdG BGGB | cAeA cAAc |[1 BGdG BGGB | cAdB G2GA :|[2 Bdef gage | dBAB G2G |]
